X:752
T:Reel 752
M:4/4
K:Gmaj
L:1/8
dc|B>G (3GGG BGdG|B>G (3GGG G2AB|c>A (3AAA ABAG|A>Bcd efgedc|B>G (3GGG BGdG|B>G (3GGG B2gd|cBcd edcB|AGFA =fde2dc|B>G (3GGG BGdG|DG (3GGG d2cB|c>A (3AAA AAcd|cAeA cdeA|BAGG GGGdGBG|BGdB edcB|cedB c2BG|ABAG AGFG|Bded BdgdBd|Bdgf g2dB|AaeA c2Ac|cAeA e2de| (3BdB gd  (3Bcd gd|Bdfd edcB|cAeA GABd| (3efg dc B
